Dominus_Dark_Funeral/scalable/actions/plugins.svg

<svg xmlns="http://www.w3.org/2000/svg" width="24" height="24"><path d="M9.76 3.07A2.13 2.13 0 0 0 7.62 5.2c0 .73.38 1.38.95 1.76v.37H3.83a.94.94 0 0 0-.94.95v4.6c.39-.49.98-.81 1.65-.81a2.13 2.13 0 0 1 0 4.26 2.12 2.12 0 0 1-1.65-.81v4.6c0 .52.42.95.94.95h4.6a2.12 2.12 0 0 1-.8-1.66 2.13 2.13 0 0 1 4.26 0c0 .67-.33 1.27-.82 1.66h4.6a.95.95 0 0 0 .95-.95v-4.74H17a2.13 2.13 0 0 0 1.77.95 2.13 2.13 0 0 0 0-4.26c-.74 0-1.38.38-1.77.94h-.37V8.28a.94.94 0 0 0-.94-.95h-4.74v-.37a2.13 2.13 0 0 0 .95-1.76 2.13 2.13 0 0 0-2.13-2.13z" fill="#e6e6e6"/></svg>

<?xml version="1.0" encoding="UTF-8" standalone="no"?>
<svg
   xmlns:dc="http://purl.org/dc/elements/1.1/"
   xmlns:cc="http://creativecommons.org/ns#"
   xmlns:rdf="http://www.w3.org/1999/02/22-rdf-syntax-ns#"
   xmlns:svg="http://www.w3.org/2000/svg"
   xmlns="http://www.w3.org/2000/svg"
   xmlns:sodipodi="http://sodipodi.sourceforge.net/DTD/sodipodi-0.dtd"
   xmlns:inkscape="http://www.inkscape.org/namespaces/inkscape"
   width="24"
   height="24"
   version="1.1"
   id="svg4"
   sodipodi:docname="plugins.svg"
   inkscape:version="0.92.4 (5da689c313, 2019-01-14)">
  <metadata
     id="metadata10">
    <rdf:RDF>
      <cc:Work
         rdf:about="">
        <dc:format>image/svg+xml</dc:format>
        <dc:type
           rdf:resource="http://purl.org/dc/dcmitype/StillImage" />
        <dc:title></dc:title>
      </cc:Work>
    </rdf:RDF>
  </metadata>
  <defs
     id="defs8" />
  <sodipodi:namedview
     pagecolor="#ffffff"
     bordercolor="#666666"
     borderopacity="1"
     objecttolerance="10"
     gridtolerance="10"
     guidetolerance="10"
     inkscape:pageopacity="0"
     inkscape:pageshadow="2"
     inkscape:window-width="1112"
     inkscape:window-height="480"
     id="namedview6"
     showgrid="false"
     inkscape:zoom="9.8333333"
     inkscape:cx="1.0677966"
     inkscape:cy="12"
     inkscape:window-x="0"
     inkscape:window-y="25"
     inkscape:window-maximized="0"
     inkscape:current-layer="svg4" />
  <path
     d="M 9.76,3.07 A 2.13,2.13 0 0 0 7.62,5.2 C 7.62,5.93 8,6.58 8.57,6.96 V 7.33 H 3.83 A 0.94,0.94 0 0 0 2.89,8.28 v 4.6 c 0.39,-0.49 0.98,-0.81 1.65,-0.81 a 2.13,2.13 0 0 1 0,4.26 2.12,2.12 0 0 1 -1.65,-0.81 v 4.6 c 0,0.52 0.42,0.95 0.94,0.95 h 4.6 a 2.12,2.12 0 0 1 -0.8,-1.66 2.13,2.13 0 0 1 4.26,0 c 0,0.67 -0.33,1.27 -0.82,1.66 h 4.6 a 0.95,0.95 0 0 0 0.95,-0.95 V 15.38 H 17 a 2.13,2.13 0 0 0 1.77,0.95 2.13,2.13 0 0 0 0,-4.26 c -0.74,0 -1.38,0.38 -1.77,0.94 H 16.63 V 8.28 A 0.94,0.94 0 0 0 15.69,7.33 H 10.95 V 6.96 A 2.13,2.13 0 0 0 11.9,5.2 2.13,2.13 0 0 0 9.77,3.07 Z"
     id="path2"
     inkscape:connector-curvature="0"
     style="fill:#e6e6e6" />
</svg>
